X:1
T:Geh I zum Bruennlein
A:Niederoesterreich 1819
B:nach "Es war einmal einmal ein Dudlsackpfeifer - ausgewaehlte Lieder und Taenze aus Oesterreich, Bayern und dem Egerland fuer Dudelsack(Bock)", R.Lughofer, Herausgeber: Volkskultur Niederoesterrich, Moedling 1997
N:im buch in F im 3/4 Takt
Z:abc transcription Simon Wascher
F:http://simonwascher.info/
M:2/4
L:1/8
K:G
D2 |\
G2GB | A2AF | G2AB  | cB dB |
A4- | A2GB | d2ce | d2c2 |
B2Ac | B2A2 | G4- | G2GB  |
d2ce | d2c2 | B2Ac | B2A2 |
G4- | G2 |]
